X:534
T:Reel 534
M:4/4
K:Dmix
L:1/8
dcAB cBcA|GEDE cEcE|dcAB cBcA|GEcE EDD2|dcAB cBcA|GEDE c2Bc|dcAB cded|cAEG GDD2||fged cAAB|cAGB cAG2|defg aged|eaag eddc|dcAB cBcA|GAAB c2eg|f2ec dcAB|cAGE EDD2|
